X:104
T:Hibbinson’s Fancy TS.104
M:6/8
L:1/8
Q:3/8=115
S:Thomas Sands’ MS,1810,Lincolnshire
R:jig
O:England;Lincolnshire
Z:vmp.Ruairidh Greig, 2011
K:F
c|fga gfe|fccc2A|Bcd cdB|AFFF2c|
fga gfe|fccc2f|edc “^# in ms”G2″^b in ms”=B|c3-c2:|
|:c|cAB cBA|Bggg2B|BGA BAG|Afff2g|
agf edc|def cBA|Bcd GAB|AFFF2:|]

